pro/src/icons/stroke-share.svg

<svg width="48" height="48" viewBox="0 0 48 48" fill="none" xmlns="http://www.w3.org/2000/svg">
<path id="icon" fill="currentColor" fill-rule="evenodd" clip-rule="evenodd" d="M24.7024 0.294719C24.5149 0.106887 24.2604 0.00134277 23.995 0.00134277C23.7296 0.00134277 23.4751 0.106887 23.2876 0.294719L17.2893 6.30291C16.8991 6.6937 16.8996 7.32687 17.2902 7.71712C17.6809 8.10738 18.3139 8.10695 18.7041 7.71616L22.9953 3.41789V31.0423C22.9953 31.5946 23.443 32.0423 23.9953 32.0423C24.5476 32.0423 24.9953 31.5946 24.9953 31.0423V3.41844L29.2859 7.71616C29.6761 8.10695 30.3091 8.10738 30.6998 7.71712C31.0904 7.32687 31.0909 6.6937 30.7007 6.30291L24.7024 0.294719ZM10.1888 14.0045C8.98274 14.0045 7.99944 14.9897 7.99944 16.2038V39.7962C7.99944 41.0103 8.98274 41.9955 10.1888 41.9955H37.8112C39.0173 41.9955 40.0006 41.0103 40.0006 39.7962V16.2038C40.0006 14.9897 39.0173 14.0045 37.8112 14.0045H30.3732C29.8211 14.0045 29.3735 13.5558 29.3735 13.0023C29.3735 12.4487 29.8211 12 30.3732 12H37.8112C40.1241 12 42 13.8852 42 16.2038V39.7962C42 42.1148 40.1241 44 37.8112 44H10.1888C7.87591 44 6 42.1148 6 39.7962V16.2038C6 13.8852 7.87591 12 10.1888 12H17.6268C18.1789 12 18.6265 12.4487 18.6265 13.0023C18.6265 13.5558 18.1789 14.0045 17.6268 14.0045H10.1888Z"/>
</svg>

<svg xmlns="http://www.w3.org/2000/svg" width="48" height="48" fill="none"><path id="icon" fill="currentColor" fill-rule="evenodd" d="M24.702.295a1 1 0 0 0-1.414 0l-5.999 6.008a1 1 0 0 0 1.415 1.413l4.291-4.298v27.624a1 1 0 1 0 2 0V3.418l4.29 4.298a1 1 0 1 0 1.416-1.413zM10.19 14.005c-1.206 0-2.19.985-2.19 2.199v23.592c0 1.214.984 2.2 2.19 2.2H37.81c1.206 0 2.19-.986 2.19-2.2V16.204c0-1.214-.984-2.2-2.19-2.2h-7.438c-.552 0-1-.448-1-1.002 0-.553.448-1.002 1-1.002h7.438C40.124 12 42 13.885 42 16.204v23.592C42 42.115 40.124 44 37.811 44H10.19C7.876 44 6 42.115 6 39.796V16.204C6 13.885 7.876 12 10.189 12h7.438a1.001 1.001 0 0 1 0 2.005z" clip-rule="evenodd"/></svg>
